X:1
T: Ten Minute Jig
C:
R:Jig
Q:180
K:F
M:6/8
L:1/16
|:C2|F4F2 F2A2c2|B4G2 E4C2|F4f2 f2e2f2|g4e2 c6|d4d2 d2e2f2|
|1e4c2 A4c2|d4c2 B4A2|G4A2 B4C2:|
|2e4c2 A4c2|B2c2d2 E4G2|F6 F4c2|
f4g2 a2g2f2|e4g2 c6|d4e2 f2e2d2|c4f2 A6|
B4c2 d2c2B2|A4B2 c2B2A2|G2=B2d2 f2e2d2|c2d2c2 B2A2G2|
F4F2 F2A2c2|B4G2 E4C2|F4f2 f2e2f2|g4e2 c6|
d4d2 d2e2f2|e4c2 A4c2|B2c2d2 E4G2|F6 F4||
